X: 22884
T: Lark's March
R: jig
M: 6/8
K: Adorian
eAA fAA|eAA fAA|g2g gfe|dBA GBd|
eAA fAA|eAA fAA|g2g gfe|1 dBA GBd:|2 dBA GAc||
B2d dBd|edB ABc|B2d dBd|edB A2c|
B2d dBd|edB def|g2g gfe|1 dBA GAc:|2 dBA GBd||

